!!!!SEGMENT: pl-kk--kk-i-15--008_asola-giovanni-matteo--tradent-enim-vos-in-conciliis.krn
!!!cenid: 16xx:1125
!!!COM: Asola, Giovanni Matteo
!!!COM-rismid: pe20000387
!!!CDT: <=1532-1609/10/01
!!!CNT: Italian
!!!OTL: Tradent enim vos in conciliis
!!!PDT:
!!!AGN: Sacred
!!!SMS-siglum: PL-Kk
!!!SMS-shelfmark: Kk.I.15
!!!SMS-shelfwork: 008 W
!!!SMS-variant:
!!!SMS-altvar:
!!!NIFC-rismid: 1001146842
!!!URL-scan: http://repozytorium.nifc.pl/skany/pl-kk-nut--i-15
!!!ONB-nifc: UWAGA: C (skan 0006), A (skan 0024), T (skan 0041), B (skan 0059). Następny motet: Iste sanctus pro lege Dei
**kern	**text	**kern	**text	**kern	**text	**kern	**text
*part4	*part4	*part3	*part3	*part2	*part2	*part1	*part1
*staff4	*staff4	*staff3	*staff3	*staff2	*staff2	*staff1	*staff1
*Iempty	*	*Itenor	*	*Ialto	*	*Ivox	*
*I"Baſso	*	*I"Tenore.	*	*I"Alto	*	*I"Canto.	*
*I'B	*	*I'T	*	*I'A	*	*I'S	*
*clefC4	*	*clefC3	*	*clefC3	*	*clefC2	*
*k[b-]	*	*k[b-]	*	*k[b-]	*	*k[b-]	*
*d:	*	*d:	*	*d:	*	*d:	*
*M2/1	*	*M2/1	*	*M2/1	*	*M2/1	*
*met(C|)	*	*met(C|)	*	*met(C|)	*	*met(C|)	*
=1-	=1-	=1-	=1-	=1-	=1-	=1-	=1-
*all\right	*	*all\right	*	*all\right	*	*all\right	*
!	!	!	!	!	!	!LO:TX:a:t=P:problem:znaki B- b-	!
00r	.	1.G	Tra-	0r	.	00r	.
!	!	!LO:TX:t=P:problem:kreska pseudotaktowa	!	!	!	!	!
.	.	2F/	-dent	.	.	.	.
=2-	=2-	=2-	=2-	=2-	=2-	=2-	=2-
!	!	!	!	!LO:TX:t=P:problem:kreska pseudotaktowa	!	!	!
.	.	2B-/	e-	1r	.	.	.
!	!	!LO:TX:t=P:problem:kreska pseudotaktowa	!	!	!	!	!
.	.	2c/	-nim	.	.	.	.
*	*	*2\right	*	*	*	*	*
.	.	2.d\	Vos	1.G	Tra-	.	.
.	.	4e\	.	.	.	.	.
=3-	=3-	=3-	=3-	=3-	=3-	=3-	=3-
00r	.	1.f	in	.	.	0r	.
!	!	!	!	!LO:TX:t=P:problem:kreska pseudotaktowa	!	!	!
.	.	.	.	2F/	-dent	.	.
.	.	.	.	2B-/	e-	.	.
!	!	!LO:TX:t=P:problem:kreska pseudotaktowa	!	!LO:TX:t=P:problem:kreska pseudotaktowa	!	!	!
.	.	2e\	con-	2c/	-nim	.	.
=4-	=4-	=4-	=4-	=4-	=4-	=4-	=4-
*	*	*	*	*2\right	*	*	*
!	!	!	!	!	!	!LO:TX:t=P:problem:kreska pseudotaktowa	!
.	.	4f\	-ci-	2d\	Vos	1r	.
.	.	4e\	.	.	.	.	.
.	.	4d\	.	2.d\	in	.	.
.	.	4c\	.	.	.	.	.
.	.	2B-/	.	.	.	1.d	Tra-
.	.	.	.	4e\	.	.	.
.	.	2B-/	-li-	1f\	con-	.	.
=5-	=5-	=5-	=5-	=5-	=5-	=5-	=5-
!LO:TX:t=P:problem:kreska pseudotaktowa	!	!LO:TX:t=P:problem:kreska pseudotaktowa	!	!	!	!	!
0r	.	1A	-js	.	.	.	.
!	!	!	!	!LO:TX:t=P:problem:kreska pseudotaktowa	!	!LO:TX:t=P:problem:kreska pseudotaktowa	!
.	.	.	.	2e\	-ci-	2c/	-dent
*	*	*	*	*	*	*2\right	*
.	.	1rc	.	2d\	-li-	2f\	e-
!	!	!	!	!	!	!LO:TX:t=P:problem:kreska pseudotaktowa	!
.	.	.	.	4c/	.	2g\	-nim
!	!	!	!	!LO:TX:t=P:problem:kreska pseudotaktowa	!	!	!
.	.	.	.	4B-/	.	.	.
=6-	=6-	=6-	=6-	=6-	=6-	=6-	=6-
1.D	Tra-	2.d\	tra-	2A/	-js	2a\	Vos
.	.	.	.	1f	tra-	2.a\	in
!	!	!LO:SIC:v:t=custos f	!	!	!	!	!
.	.	4e\	-dent	.	.	.	.
!	!	!LO:LB:g=original	!	!	!	!	!
.	.	2f\	e-	.	.	.	.
.	.	.	.	.	.	4b-\	.
!LO:TX:t=P:problem:kreska pseudotaktowa	!	!LO:TX:t=P:problem:kreska pseudotaktowa	!	!LO:TX:t=P:problem:kreska pseudotaktowa	!	!	!
2C/	-dent	2e\	-nim	2g\	-dent	1cc\	con-
=7-	=7-	=7-	=7-	=7-	=7-	=7-	=7-
2F/	e-	2f\	Vos	2a\	e-	.	-ci-
!	!	!	!	!	!	!LO:TX:t=P:problem:kreska pseudotaktowa	!
2G/	-nim	2d\	.	4g\	.	2b-\	.
!	!	!	!	!LO:SIC:v:t=custos e	!	!	!
.	.	.	.	4f\	.	.	.
!LO:TX:t=P:problem:kreska pseudotaktowa	!	!LO:TX:t=P:problem:kreska pseudotaktowa	!	!LO:LB:g=original	!	!	!
1A	Vos	1c	.	2e\	.	4cc\	.
.	.	.	.	.	.	4b-\	.
.	.	.	.	2e\	-nim	4a\	.
!	!	!	!	!	!	!LO:TX:t=P:problem:kreska pseudotaktowa	!
.	.	.	.	.	.	4g\	.
=8-	=8-	=8-	=8-	=8-	=8-	=8-	=8-
*2\right	*	*	*	*	*	*	*
!	!	!	!	!LO:TX:a:t=P:problem:rozdzielacz słów:global	!	!	!
2B-\	in	2r	.	2d,<\	Vos	4f\	.
.	.	.	.	.	.	4g\	.
!	!	!	!	!LO:TX:t=P:problem:kreska pseudotaktowa	!	!	!
2A/	con-	1c	in	2e\	in	2.a\	.
2F/	-ci-	.	.	2f\	con-	.	.
!	!	!	!	!	!	!LO:SIC:v:t=custos g	!
.	.	.	.	.	.	4g\	.
!LO:TX:t=P:problem:kreska pseudotaktowa	!	!LO:TX:t=P:problem:kreska pseudotaktowa	!	!	!	!	!
2G/	-li-	2B-/	con-	1d\	-ci-	1g\	.
!	!	!	!	!	!	!LO:LB:g=original	!
=9-	=9-	=9-	=9-	=9-	=9-	=9-	=9-
1D	-js	2A/	-ci-	.	.	.	.
!	!	!	!	!LO:TX:t=P:problem:kreska pseudotaktowa	!	!LO:TX:t=P:problem:kreska pseudotaktowa	!
.	.	2A/	-li-	2d\	-li-	2f\	-li-
!	!	!LO:TX:t=P:problem:kreska pseudotaktowa	!	!	!	!LO:TX:t=P:problem:kreska pseudotaktowa	!
2r	.	1G	-js	2d\	-js	1g	-js
*	*ij	*	*	*	*	*	*
1G/	Tra-	.	.	1B-/	tra-	.	.
=10-	=10-	=10-	=10-	=10-	=10-	=10-	=10-
.	.	0r	.	.	.	2ra	.
!LO:TX:t=P:problem:kreska pseudotaktowa	!	!	!	!LO:TX:t=P:problem:kreska pseudotaktowa	!	!LO:TX:t=P:problem:kreska pseudotaktowa	!
2F/	-dent	.	.	2c/	-dent	2a\	in
!LO:SIC:v:t=custos c	!	!	!	!	!	!	!
2B-\	e-	.	.	2d\	e-	2b-\	con-
!LO:LB:g=original	!	!	!	!	!	!	!
!LO:TX:t=P:problem:kreska pseudotaktowa	!	!	!	!	!	!LO:TX:t=P:problem:kreska pseudotaktowa:między nutą a kropką	!
2c\	-nim	.	.	2e\	-nim	2.a\	-ci-
=11-	=11-	=11-	=11-	=11-	=11-	=11-	=11-
!	!	!LO:TX:t=P:problem:kreska pseudotaktowa	!	!LO:TX:t=P:problem:kreska pseudotaktowa	!	!	!
1d	Vos	1r	.	1f	Vos	.	.
.	.	.	.	.	.	8g\L	.
.	.	.	.	.	.	8a\J	.
.	.	.	.	.	.	2.b-\	.
(2.B-\	in	1d	in	2r	.	.	.
.	.	.	.	.	.	4a\	.
!	!	!	!	!	!	!LO:TX:t=P:problem:kreska pseudotaktowa	!
.	.	.	.	1B-/	in	2f\	.
!LO:TX:t=P:problem:kreska pseudotaktowa	!	!	!	!	!	!	!
4A\)	.	.	.	.	.	.	.
=12-	=12-	=12-	=12-	=12-	=12-	=12-	=12-
2G/	con-	2d\	con-	.	.	2g\	.
!	!	!LO:TX:t=P:problem:kreska pseudotaktowa:między nutą a kropką	!	!LO:TX:t=P:problem:kreska pseudotaktowa	!	!	!
2F/	.	2.f\	-ci-	2c/	con-	1a	.
1B-	-ci-	.	.	1d	-ci-	.	.
.	.	4e\	.	.	.	.	.
!	!	!	!	!	!	!LO:TX:t=P:problem:kreska pseudotaktowa	!
.	.	1d\	.	.	.	2g\	-li-
=13-	=13-	=13-	=13-	=13-	=13-	=13-	=13-
!LO:TX:t=P:problem:kreska pseudotaktowa	!	!	!	!LO:TX:t=P:problem:kreska pseudotaktowa	!	!LO:TX:t=P:problem:kreska pseudotaktowa	!
1A	-li-	.	.	(1e	-li-	1a	-js
!	!	!LO:TX:t=P:problem:kreska pseudotaktowa	!	!	!	!	!
.	.	2c/	-li-	.	.	.	.
!LO:TX:t=P:problem:kreska pseudotaktowa	!	!	!	!	!	!	!
0.D	-js	1d	-js	1f)	.	2ra	.
*	*Xij	*	*	*	*	*	*
.	.	.	.	.	.	1a\	et
=14-	=14-	=14-	=14-	=14-	=14-	=14-	=14-
!	!	!	!	!LO:SIC:v:t=custos d	!	!	!
.	.	2r	.	1d	-js	.	.
!	!	!LO:SIC:v:t=custos d	!	!	!	!LO:TX:t=P:problem:kreska pseudotaktowa	!
.	.	1d	et	.	.	2a\	in
!	!	!	!	!LO:LB:g=original	!	!LO:SIC:v:t=custos a	!
.	.	.	.	0r	.	2b-\	Sy-
!	!	!LO:LB:g=original	!	!	!	!	!
!	!	!LO:TX:t=P:problem:kreska pseudotaktowa	!	!	!	!LO:LB:g=original	!
.	.	2d\	in	.	.	2a\	-na-
=15-	=15-	=15-	=15-	=15-	=15-	=15-	=15-
00r	.	2e\	Sy-	.	.	2g\	-go-
!	!	!	!	!	!	!LO:TX:t=P:problem:kreska pseudotaktowa	!
.	.	2d\	-na-	.	.	2f\	-gis
!	!	!	!	!LO:TX:t=P:problem:kreska pseudotaktowa	!	!	!
.	.	2c/	-go-	1r	.	2e/	Su-
!	!	!LO:TX:t=P:problem:kreska pseudotaktowa	!	!	!	!	!
.	.	2B-/	-gis	.	.	2.g\	.
=16-	=16-	=16-	=16-	=16-	=16-	=16-	=16-
.	.	2c/	Su-	2r	.	.	.
.	.	.	.	.	.	8f\L	.
.	.	.	.	.	.	8e\J	.
.	.	2d\	.	1d	et	2f\	.
!	!	!LO:TX:t=P:problem:kreska pseudotaktowa	!	!	!	!LO:TX:t=P:problem:kreska pseudotaktowa	!
.	.	0G	-is	.	.	1g	-is
!	!	!	!	!LO:TX:t=P:problem:kreska pseudotaktowa	!	!	!
.	.	.	.	2d\	in	.	.
=17-	=17-	=17-	=17-	=17-	=17-	=17-	=17-
!LO:TX:t=P:problem:kreska pseudotaktowa	!	!	!	!	!	!	!
0r	.	.	.	2e-X\	Sy-	2r	.
*	*	*	*	*	*	*	*ij
!	!	!	!	!LO:TX:t=P:problem:kreska pseudotaktowa	!	!	!
.	.	.	.	2d\	-na-	1g	et
.	.	00r	.	2c/	-go-	.	.
!	!	!	!	!LO:TX:t=P:problem:kreska pseudotaktowa	!	!LO:TX:t=P:problem:kreska pseudotaktowa	!
.	.	.	.	2B-/	-gis	2g\	in
=18-	=18-	=18-	=18-	=18-	=18-	=18-	=18-
1.A	et	.	.	2c/	Su-	2f\	Sy-
.	.	.	.	1d	.	2f\	-na-
.	.	.	.	.	.	2.e/	-go-
!LO:TX:t=P:problem:kreska pseudotaktowa	!	!	!	!LO:TX:t=P:problem:kreska pseudotaktowa	!	!	!
2A/	in	.	.	2c/	.	.	.
!	!	!	!	!	!	!LO:TX:t=P:problem:kreska pseudotaktowa	!
.	.	.	.	.	.	4f\	.
=19-	=19-	=19-	=19-	=19-	=19-	=19-	=19-
2B-\	Sy-	.	.	2d\	.	2g\	-gis
!LO:TX:t=P:problem:kreska pseudotaktowa	!	!	!	!	!	!	!
2A/	-na-	.	.	2.eny\	.	2a\	Su-
2G/	-go-	2r	.	.	.	2b-\	.
.	.	.	.	8d\L	.	.	.
.	.	.	.	8e\J	.	.	.
!	!	!	!	!	!	!LO:TX:t=P:problem:kreska pseudotaktowa	!
!	!	!LO:TX:t=P:problem:kreska pseudotaktowa	!	!LO:TX:t=P:problem:kreska pseudotaktowa	!	!LO:SIC:v:t=custos g	!
2F/	-gis	2A/	fla-	2f\	.	2a\	.
!	!	!	!	!	!	!LO:LB:g=original	!
=20-	=20-	=20-	=20-	=20-	=20-	=20-	=20-
*lig	*	*	*	*	*	*	*
1G	Su-	2B-/	-gel-	1d	-is	2.g\	.
.	.	1d	-la-	.	.	.	.
.	.	.	.	.	.	4f\	.
!LO:TX:t=P:problem:kreska pseudotaktowa	!	!	!	!	!	!	!
!LO:SIC:v:t=custos D	!	!	!	!LO:TX:t=P:problem:kreska pseudotaktowa	!	!	!
1A	.	.	.	1r	.	1e	.
.	.	2c/	-bunt	.	.	.	.
!	!	!LO:TX:t=P:problem:kreska pseudotaktowa	!	!	!	!	!
*Xlig	*	*	*	*	*	*	*
!LO:PB:g=original	!	!	!	!	!	!	!
=21-	=21-	=21-	=21-	=21-	=21-	=21-	=21-
!LO:TX:a:t=P:problem:rozdzielacz słów:global	!	!	!	!	!	!LO:TX:t=P:problem:kreska pseudotaktowa	!
1D,<	-is	1d	Vos	2.f\	fla-	1d	-is
*	*	*	*	*	*	*	*Xij
!	!	!	!	!LO:TX:t=P:problem:kreska pseudotaktowa	!	!	!
.	.	.	.	4g\	-gel-	.	.
*	*	*	*ij	*	*	*	*
!	!	!	!	!LO:SIC:v:t=custos f	!	!	!
2.F/	fla-	2.A/	fla-	2a\	-la-	0r	.
!	!	!	!	!LO:PB:g=original	!	!	!
.	.	.	.	2f\	-bunt	.	.
!LO:TX:t=P:problem:kreska pseudotaktowa	!	!LO:TX:t=P:problem:kreska pseudotaktowa	!	!	!	!	!
4G/	-gel-	4B-/	-gel-	.	.	.	.
=22-	=22-	=22-	=22-	=22-	=22-	=22-	=22-
!	!	!	!	!LO:TX:t=P:problem:kreska pseudotaktowa	!	!	!
1A	-la-	2c/	-la-	1e	Vos	.	.
.	.	2c/	-bunt	.	.	.	.
!	!	!LO:TX:t=P:problem:kreska pseudotaktowa	!	!	!	!	!
!	!	!LO:SIC:v:t=custos A	!	!	!	!	!
1B-	-bunt	1d	Vos	2r	.	2.f\	fla-
*	*	*	*Xij	*	*ij	*	*
!	!	!	!	!LO:TX:t=P:problem:kreska pseudotaktowa	!	!	!
.	.	.	.	2d\	fla-	.	.
!	!	!	!	!	!	!LO:TX:t=P:problem:kreska pseudotaktowa	!
.	.	.	.	.	.	4g\	-gel-
!	!	!LO:LB:g=original	!	!	!	!	!
=23-	=23-	=23-	=23-	=23-	=23-	=23-	=23-
!LO:TX:t=P:problem:kreska pseudotaktowa	!	!	!	!	!	!	!
0A	Vos	1rc	.	2e\	-gel-	2a\	-la-
.	.	.	.	1a	-la-	2f\	-bunt
*	*	*	*ij	*	*	*	*
!	!	!	!	!	!	!LO:TX:t=P:problem:kreska pseudotaktowa	!
.	.	2.A/	fla-	.	.	1e	Vos
.	.	.	.	4g\	.	.	.
!	!	!LO:TX:t=P:problem:kreska pseudotaktowa	!	!LO:TX:t=P:problem:kreska pseudotaktowa	!	!	!
.	.	4B-/	-gel-	4f\	.	.	.
=24-	=24-	=24-	=24-	=24-	=24-	=24-	=24-
1r	.	2c/	-la-	2e\	.	0r	.
.	.	2c/	-bunt	2e\	-bunt	.	.
*	*ij	*	*	*	*	*	*
!	!	!LO:TX:t=P:problem:kreska pseudotaktowa	!	!LO:TX:t=P:problem:kreska pseudotaktowa	!	!	!
2.B-\	fla-	0d	Vos	1f	Vos	.	.
*	*	*	*Xij	*	*Xij	*	*
4c\	-gel-	.	.	.	.	.	.
=25-	=25-	=25-	=25-	=25-	=25-	=25-	=25-
*	*	*	*	*	*	*	*ij
2d\	-la-	.	.	2r	.	2.f\	fla-
!LO:TX:t=P:problem:kreska pseudotaktowa	!	!	!	!LO:TX:t=P:problem:kreska pseudotaktowa	!	!	!
2B-\	-bunt	.	.	2d\	et	.	.
.	.	.	.	.	.	4g\	-gel-
2A,</	Vos	00r	.	2e\	an-	2a\	-la-
*	*Xij	*	*	*	*	*	*
!	!	!	!	!	!	!LO:TX:t=P:problem:kreska pseudotaktowa	!
2D/	et	.	.	4f\	-te	2f\	-bunt
!	!	!	!	!LO:TX:t=P:problem:przekreślona synkopowana wartość	!	!	!
.	.	.	.	2d\	Re-	.	.
=26-	=26-	=26-	=26-	=26-	=26-	=26-	=26-
2A/	an-	.	.	.	.	1.e	Vos
*	*	*	*	*	*	*	*Xij
.	.	.	.	8c/L	.	.	.
.	.	.	.	8B-/J	.	.	.
!LO:TX:t=P:problem:kreska pseudotaktowa	!	!	!	!LO:TX:t=P:problem:kreska pseudotaktowa	!	!	!
2A/	-te	.	.	2c/	.	.	.
1B-	Re-	.	.	2d\	-ges	.	.
!	!	!	!	!	!	!LO:TX:t=P:problem:kreska pseudotaktowa	!
.	.	.	.	2d\	et	2d/	et
=27-	=27-	=27-	=27-	=27-	=27-	=27-	=27-
2A/	-ges	.	.	2.c/	Prae-	2a\	an-
!LO:TX:t=P:problem:kreska pseudotaktowa	!	!	!	!	!	!LO:TX:t=P:problem:kreska pseudotaktowa	!
!LO:SIC:v:t=custos G	!	!	!	!	!	!LO:SIC:v:t=custos b	!
2F/	et	.	.	.	.	2a\	-te
!	!	!	!	!LO:SIC:v:t=custos B	!	!	!
.	.	.	.	4c/	-si-	.	.
!LO:LB:g=original	!	!	!	!LO:LB:g=original	!	!	!
!	!	!	!	!LO:TX:t=P:problem:kreska pseudotaktowa	!	!LO:PB:g=original	!
2.G/	Prae-	2r	.	1B-	-des	1b-	Re-
!	!	!LO:TX:t=P:problem:kreska pseudotaktowa	!	!	!	!	!
.	.	2G/	et	.	.	.	.
4G/	-ſi-	.	.	.	.	.	.
=28-	=28-	=28-	=28-	=28-	=28-	=28-	=28-
!LO:TX:t=P:problem:kreska pseudotaktowa	!	!	!	!	!	!	!
1D	-des	2d\	an-	00r	.	2a\	-ges
!	!	!	!	!	!	!LO:TX:t=P:problem:kreska pseudotaktowa	!
.	.	2d\	-te	.	.	2f\	et
!	!	!LO:TX:t=P:problem:kreska pseudotaktowa	!	!	!	!	!
1r	.	1e	Re-	.	.	2.g\	Prae-
.	.	.	.	.	.	4g\	-si-
=29-	=29-	=29-	=29-	=29-	=29-	=29-	=29-
2r	.	2d\	-ges	.	.	2f\	-des
!LO:TX:t=P:problem:kreska pseudotaktowa	!	!LO:TX:t=P:problem:kreska pseudotaktowa	!	!	!	!LO:TX:t=P:problem:kreska pseudotaktowa	!
2d\	et	2B-/	et	.	.	2b-\	et
2e\	an-	2.c/	Prae-	.	.	4g\	Prae-
.	.	.	.	.	.	4f\	.
2e\	-te	.	.	.	.	4g\	.
!	!	!	!	!	!	!LO:TX:t=P:problem:kreska pseudotaktowa	!
.	.	4c/	-ſi-	.	.	4a\	.
=30-	=30-	=30-	=30-	=30-	=30-	=30-	=30-
!	!	!LO:TX:t=P:problem:kreska pseudotaktowa	!	!	!	!	!
1d	Re-	1G	-des	2r	.	2.b-\	.
*	*	*	*	*	*ij	*	*
!	!	!	!	!LO:TX:t=P:problem:kreska pseudotaktowa	!	!	!
.	.	.	.	2G/	et	.	.
.	.	.	.	.	.	4a\	.
!LO:TX:t=P:problem:kreska pseudotaktowa	!	!	!	!	!	!	!
1G	-ges	2rA	.	2d\	an-	4g\	.
.	.	.	.	.	.	4f\	.
*	*	*	*ij	*	*	*	*
!	!	!LO:TX:t=P:problem:kreska pseudotaktowa	!	!	!	!	!
.	.	2B-/	et	2d\	-te	1g\	.
=31-	=31-	=31-	=31-	=31-	=31-	=31-	=31-
!	!	!	!	!LO:TX:t=P:problem:kreska pseudotaktowa	!	!	!
2r	.	2c/	an-	1e-X	Re-	.	.
*	*ij	*	*	*	*	*	*
!	!	!LO:TX:t=P:problem:kreska pseudotaktowa	!	!	!	!	!
!	!	!LO:SIC:v:t=custos d	!	!	!	!LO:TX:t=P:problem:kreska pseudotaktowa	!
2C/	et	2c/	-te	.	.	2g\	-si-
!	!	!LO:LB:g=original	!	!	!	!LO:TX:t=P:problem:kreska pseudotaktowa	!
2G/	an-	1d	Re-	2d\	-ges	0g	-des
!LO:TX:t=P:problem:kreska pseudotaktowa	!	!	!	!LO:TX:t=P:problem:kreska pseudotaktowa	!	!	!
2G/	-te	.	.	2B-/	et	.	.
=32-	=32-	=32-	=32-	=32-	=32-	=32-	=32-
2C/	Re-	2e\	-ges	2.c/	Prae-	.	.
!	!	!LO:TX:t=P:problem:kreska pseudotaktowa	!	!	!	!	!
1c	-ges	2e\	et	.	.	.	.
*	*Xij	*	*	*	*	*	*
.	.	.	.	4c/	-ſi-	.	.
!	!	!	!	!LO:TX:t=P:problem:kreska pseudotaktowa	!	!	!
.	.	2d\	Prae-	1G	-des	1r	.
*	*	*	*	*	*Xij	*	*
!LO:TX:t=P:problem:kreska pseudotaktowa	!	!	!	!	!	!	!
2B-\	et	1g\	.	.	.	.	.
=33-	=33-	=33-	=33-	=33-	=33-	=33-	=33-
!	!	!	!	!	!	!LO:TX:t=P:problem:kreska pseudotaktowa	!
2A/	Prae-	.	.	2rB	.	1a	du-
!LO:SIC:v:t=custos G	!	!LO:TX:t=P:problem:kreska pseudotaktowa	!	!	!	!	!
2G/	-si-	2f\	-ſi-	2c/	du-	.	.
!LO:LB:g=original	!	!	!	!	!	!	!
!LO:TX:t=P:problem:kreska pseudotaktowa	!	!LO:TX:a:t=P:problem:rozdzielacz słów	!	!	!	!	!
1G	-des	1g,<	-des	2B-/	-ce-	2.b-\	-ce-
*	*	*	*Xij	*	*	*	*
.	.	.	.	1d\	-mi-	.	.
!	!	!	!	!	!	!LO:SIC:v:t=custos a	!
.	.	.	.	.	.	4b-\	-mi-
!	!	!	!	!	!	!LO:LB:g=original	!
=34-	=34-	=34-	=34-	=34-	=34-	=34-	=34-
1A	du-	2e\	du-	.	.	1a	-ni
!	!	!	!	!LO:TX:t=P:problem:kreska pseudotaktowa	!	!	!
.	.	1f	-ce-	2c/	.	.	.
!	!	!	!	!LO:TX:t=P:problem:kreska pseudotaktowa	!	!	!
2.B-\	-ce-	.	.	1d	-ni	2f\	pro-
!	!	!LO:TX:t=P:problem:kreska pseudotaktowa	!	!	!	!LO:TX:t=P:problem:kreska pseudotaktowa	!
.	.	2d\	-mi-	.	.	2g\	-pter
!LO:TX:t=P:problem:kreska pseudotaktowa	!	!	!	!	!	!	!
4B-\	-mi-	.	.	.	.	.	.
=35-	=35-	=35-	=35-	=35-	=35-	=35-	=35-
!	!	!	!	!	!	!LO:TX:t=P:problem:kreska pseudotaktowa	!
2A/	-ni	2e\	-ni	2r	.	1a	Me
1F	pro-	1f	pro-	1c	pro-	.	.
.	.	.	.	.	.	2r	.
!	!	!LO:TX:t=P:problem:kreska pseudotaktowa	!	!	!	!	!
2G/	-pter	2d\	-pter	2B-/	-pter	1g\	pro-
=36-	=36-	=36-	=36-	=36-	=36-	=36-	=36-
!LO:TX:t=P:problem:kreska pseudotaktowa	!	!LO:TX:t=P:problem:kreska pseudotaktowa	!	!	!	!	!
*	*	*	*	*lig	*	*	*
1D	Me	0d	Me	1A	Me	.	.
!	!	!	!	!	!	!LO:TX:t=P:problem:kreska pseudotaktowa	!
.	.	.	.	.	.	2f\	-pter
!	!	!	!	!LO:SIC:v:t=custos g	!	!	!
2r	.	.	.	1G	.	2g\	me
2d\	du-	.	.	.	.	1b-\	pro-
*	*	*	*	*Xlig	*	*	*
!	!	!	!	!LO:LB:g=original	!	!	!
=37-	=37-	=37-	=37-	=37-	=37-	=37-	=37-
2.e\	-ce-	1r	.	1g	du-	.	.
.	.	.	.	.	.	4a\	.
!LO:TX:t=P:problem:kreska pseudotaktowa	!	!	!	!	!	!LO:TX:t=P:problem:kreska pseudotaktowa	!
4e\	-mi-	.	.	.	.	4g\	.
2d\	-ni	2r	.	1.f	-ce-	2a\	.
*	*	*	*ij	*	*	*	*
1B-\	pro-	1d\	pro-	.	.	2.b-\	.
=38-	=38-	=38-	=38-	=38-	=38-	=38-	=38-
.	.	.	.	.	.	.	.
.	.	.	.	.	.	4a\	.
!	!	!LO:TX:t=P:problem:kreska pseudotaktowa	!	!LO:TX:t=P:problem:kreska pseudotaktowa:między nutą a kropką	!	!LO:TX:t=P:problem:kreska pseudotaktowa:między nutą a kropką	!
2c\	-pter	2c/	-pter	2.eny\	-mi-	2.g\	.
*	*	*lig	*	*	*	*	*
!LO:TX:t=P:problem:kreska pseudotaktowa	!	!	!	!	!	!	!
1G	Me	1B-	Me	.	.	.	.
*	*	*	*Xij	*	*	*	*
.	.	.	.	4d\	-ni	4f\	.
.	.	.	.	1d\	pro-	4e\	.
.	.	.	.	.	.	4d\	.
=39-	=39-	=39-	=39-	=39-	=39-	=39-	=39-
!	!	!LO:SIC:v:t=custos d	!	!	!	!	!
1rA	.	1A	.	.	.	2e/	.
.	.	.	.	2c/	-pter	2e/	-pter
*	*	*Xlig	*	*	*	*	*
!	!	!LO:LB:g=original	!	!	!	!LO:TX:t=P:problem:kreska pseudotaktowa	!
!	!	!	!	!LO:TX:t=P:problem:kreska pseudotaktowa	!	!LO:SIC:v:t=custos d	!
2rG	.	2r	.	1d	Me	1d	me
!LO:TX:t=P:problem:kreska pseudotaktowa	!	!	!	!	!	!	!
!LO:SIC:v:t=custos E	!	!LO:TX:t=P:problem:kreska pseudotaktowa	!	!	!	!	!
2D/	in	2d\	in	.	.	.	.
!	!	!	!	!	!	!LO:LB:g=original	!
!LO:LB:g=original	!	!	!	!	!	!	!
=40-	=40-	=40-	=40-	=40-	=40-	=40-	=40-
!	!	!	!	!	!	!LO:TX:t=P:problem:kreska pseudotaktowa	!
2E/	te-	2c/	te-	0r	.	1r	.
!LO:TX:t=P:problem:kreska pseudotaktowa	!	!LO:TX:t=P:problem:kreska pseudotaktowa	!	!	!	!	!
2F/	-sti-	2A/	-ſti-	.	.	.	.
1.G	-mo-	2.B-/	-mo-	.	.	2r	.
.	.	.	.	.	.	2d/	in
.	.	4B-/	-ni-	.	.	.	.
=41-	=41-	=41-	=41-	=41-	=41-	=41-	=41-
.	.	2G/	-um	2r	.	2e/	te-
!LO:TX:t=P:problem:kreska pseudotaktowa	!	!	!	!LO:TX:t=P:problem:kreska pseudotaktowa	!	!LO:TX:t=P:problem:kreska pseudotaktowa	!
2F/	-ni-	1d	il-	2A/	in	2f\	-sti-
1E	-um	.	.	2G/	te-	1.g	-mo-
!	!	!LO:TX:t=P:problem:kreska pseudotaktowa	!	!	!	!	!
.	.	2c/	.	2G/	-sti-	.	.
=42-	=42-	=42-	=42-	=42-	=42-	=42-	=42-
!LO:TX:t=P:problem:kreska pseudotaktowa	!	!LO:TX:t=P:problem:kreska pseudotaktowa	!	!	!	!	!
(1D	il-	1d	-lis.	2A/	-mo-	.	.
!	!	!	!	!	!	!LO:TX:t=P:problem:kreska pseudotaktowa	!
.	.	.	.	1d	-ni-	2f\	ni-
!	!	!	!	!	!	!LO:TX:t=P:problem:kreska pseudotaktowa	!
1A)	.	0r	.	.	.	1e	-um
!	!	!	!	!LO:TX:t=P:problem:kreska pseudotaktowa	!	!	!
.	.	.	.	2c/	-um	.	.
=43-	=43-	=43-	=43-	=43-	=43-	=43-	=43-
!LO:TX:t=P:problem:kreska pseudotaktowa	!	!	!	!	!	!	!
1D	-lis	.	.	2.d\	il-	4d/	il-
.	.	.	.	.	.	4e/	.
.	.	.	.	.	.	4f/	.
.	.	.	.	4e\	.	4g/	.
2rG	.	2r	.	2f\	.	2a\	.
*	*ij	*	*ij	*	*	*	*
!LO:TX:t=P:problem:kreska pseudotaktowa	!	!LO:TX:t=P:problem:kreska pseudotaktowa	!	!LO:TX:t=P:problem:kreska pseudotaktowa	!	!LO:TX:t=P:problem:kreska pseudotaktowa	!
2G/	in	2B-/	in	2g\	.	2b-\	.
=44-	=44-	=44-	=44-	=44-	=44-	=44-	=44-
2A/	te-	2c/	te-	2e\	.	2a\	.
!LO:TX:t=P:problem:kreska pseudotaktowa	!	!LO:TX:t=P:problem:kreska pseudotaktowa	!	!LO:TX:t=P:problem:kreska pseudotaktowa	!	!LO:TX:t=P:problem:kreska pseudotaktowa	!
2B-\	-sti-	2d\	-ſti-	2d\	-lis	2g\	lis
1.c	-mo-	1.e	-mo-	1r	.	2r	.
*	*	*	*	*	*	*	*ij
!	!	!	!	!	!	!LO:TX:t=P:problem:kreska pseudotaktowa	!
.	.	.	.	.	.	2g\	in
=45-	=45-	=45-	=45-	=45-	=45-	=45-	=45-
!	!	!	!	!LO:SIC:v:t=custos d	!	!	!
.	.	.	.	2r	.	2a\	te-
!	!	!	!	!LO:LB:g=original	!	!LO:TX:t=P:problem:kreska pseudotaktowa	!
*	*	*	*	*	*ij	*	*
!LO:TX:t=P:problem:kreska pseudotaktowa	!	!LO:TX:t=P:problem:kreska pseudotaktowa	!	!LO:TX:t=P:problem:kreska pseudotaktowa	!	!LO:SIC:v:t=custos cc	!
2B-\	-ni-	2d\	-ni-	2d\	in	2b-\	-sti-
!	!	!	!	!	!	!LO:LB:g=original	!
1A	-um	1c	-um	2e\	te-	1.cc	-mo-
.	.	.	.	2f\	-sti-	.	.
=46-	=46-	=46-	=46-	=46-	=46-	=46-	=46-
!LO:TX:t=P:problem:kreska pseudotaktowa	!	!	!	!	!	!	!
1G	il-	4d\	il-	1.g	-mo-	.	.
.	.	4G/	.	.	.	.	.
!	!	!	!	!	!	!LO:TX:t=P:problem:kreska pseudotaktowa	!
.	.	2.d\	.	.	.	2b-\	-ni-
!LO:TX:t=P:problem:kreska pseudotaktowa	!	!	!	!	!	!	!
!LO:SIC:v:t=custos G	!	!	!	!	!	!	!
1D	-lis	.	.	.	.	1a	-um
!	!	!LO:SIC:v:t=custos A	!	!	!	!	!
.	.	4c/	.	.	.	.	.
!	!	!LO:PB:g=original	!	!LO:TX:t=P:problem:kreska pseudotaktowa	!	!	!
.	.	4A/	.	2f\	-ni-	.	.
!	!	!LO:TX:t=P:problem:kreska pseudotaktowa	!	!	!	!	!
.	.	4B-/	.	.	.	.	.
!LO:LB:g=original	!	!	!	!	!	!	!
=47-	=47-	=47-	=47-	=47-	=47-	=47-	=47-
1r	.	1c	.	1e	-um	2.g\	il-
!	!	!	!	!	!	!LO:TX:t=P:problem:kreska pseudotaktowa	!
.	.	.	.	.	.	4a\	.
!	!	!LO:TX:t=P:problem:kreska pseudotaktowa	!	!	!	!	!
2r	.	1G	-lis.	2.d\	il-	1b-	.
!LO:TX:t=P:problem:kreska pseudotaktowa	!	!	!	!	!	!	!
2G/	in	.	.	.	.	.	.
!	!	!	!	!LO:TX:t=P:problem:kreska pseudotaktowa	!	!	!
.	.	.	.	4c/	.	.	.
=48-	=48-	=48-	=48-	=48-	=48-	=48-	=48-
2G/	te-	1rc	.	4B-/	.	2g\	.
.	.	.	.	4G/	.	.	.
!	!	!	!	!	!	!LO:TX:a:t=P:problem:rozdzielacz słów	!
2F/	-sti-	.	.	2.d\	.	1a,<	lis
*	*	*	*	*	*	*	*Xij
2.E/	-mo-	2rA	.	.	.	.	.
.	.	.	.	8c/L	.	.	.
.	.	.	.	8B-/J	.	.	.
!	!	!LO:TX:t=P:problem:kreska pseudotaktowa	!	!LO:TX:t=P:problem:kreska pseudotaktowa	!	!LO:TX:t=P:problem:kreska pseudotaktowa	!
.	.	2G/	in	2c/	.	2g\	et
4E/	-ni-	.	.	.	.	.	.
=49-	=49-	=49-	=49-	=49-	=49-	=49-	=49-
!LO:TX:t=P:problem:kreska pseudotaktowa	!	!	!	!	!	!	!
1D	-um	2A/	te-	1d	-lis	2.f\	Gen-
.	.	2B-/	-ſti-	.	.	.	.
.	.	.	.	.	.	4f\	-ti-
*lig	*	*lig	*	*	*	*	*
1A	il-	1c	-mo-	1r	.	2e/	-bus
!	!	!	!	!	!	!LO:TX:t=P:problem:kreska pseudotaktowa	!
.	.	.	.	.	.	2a\	in
=50-	=50-	=50-	=50-	=50-	=50-	=50-	=50-
*	*	*col	*	*	*	*	*
1B-	.	2.d\	.	2r	.	2a\	te-
*	*	*Xlig	*	*	*	*	*
!	!	!	!	!LO:TX:t=P:problem:kreska pseudotaktowa	!	!LO:TX:t=P:problem:kreska pseudotaktowa	!
.	.	.	.	2d\	in	2g\	-sti-
!	!	!LO:TX:t=P:problem:kreska pseudotaktowa	!	!	!	!	!
.	.	4d\	-ni-	.	.	.	.
*	*	*Xcol	*	*	*	*	*
!	!	!LO:TX:t=P:problem:kreska pseudotaktowa	!	!	!	!	!
*Xlig	*	*Xlig	*	*	*	*	*
(2.A/	.	2.c/	-um	2e\	te-	1.a	-mo-
.	.	.	.	2e\	-sti-	.	.
!LO:TX:t=P:problem:kreska pseudotaktowa	!	!LO:TX:t=P:problem:kreska pseudotaktowa	!	!	!	!	!
4G/)	.	4B-/	.	.	.	.	.
=51-	=51-	=51-	=51-	=51-	=51-	=51-	=51-
2F,</	-lis	2A/	il-	2f\	-mo-	.	.
*	*Xij	*	*	*	*	*	*
!	!	!	!	!LO:TX:t=P:problem:kreska pseudotaktowa	!	!LO:TX:t=P:problem:kreska pseudotaktowa	!
!	!	!	!	!LO:SIC:v:t=custos e	!	!LO:SIC:v:t=custos g	!
2G/	et	1d	.	2d\	-ni-	2g\	-ni-
!	!	!	!	!LO:LB:g=original	!	!LO:LB:g=original	!
2.E/	Gen-	.	.	1e	-um	2.g\	-um
!	!	!LO:TX:t=P:problem:kreska pseudotaktowa	!	!	!	!	!
.	.	2c/	.	.	.	.	.
4E/	-ti-	.	.	.	.	4a\	.
=52-	=52-	=52-	=52-	=52-	=52-	=52-	=52-
!LO:TX:t=P:problem:kreska pseudotaktowa	!	!	!	!	!	!	!
1D	-bus	2d,<\	-lis.	1f	il-	2b-\	.
*	*	*	*Xij	*	*	*	*
!	!	!LO:TX:t=P:problem:kreska pseudotaktowa	!	!	!	!	!
.	.	2A/	et	.	.	1a	il-
*	*	*lig	*	*	*	*	*
2r	.	1B-	gen-	2d,<\	-lis	.	.
!LO:SIC:v:t=custos d	!	!	!	!LO:TX:t=P:problem:kreska pseudotaktowa	!	!LO:TX:t=P:problem:kreska pseudotaktowa	!
2d\	in	.	.	2d\	in	2g\	.
!LO:LB:g=original	!	!	!	!	!	!	!
=53-	=53-	=53-	=53-	=53-	=53-	=53-	=53-
*	*	*col	*	*	*	*	*
!	!	!	!	!	!	!LO:TX:t=P:problem:kreska pseudotaktowa	!
2d\	te-	2.A/	.	2e\	te-	1a	-lis
!LO:TX:t=P:problem:kreska pseudotaktowa	!	!	!	!	!	!	!
2c\	-sti-	.	.	2f\	-sti-	.	.
*	*	*Xlig	*	*	*	*	*
.	.	4A/	-ti-	.	.	.	.
*	*	*Xcol	*	*	*	*	*
*	*	*	*	*lig	*	*	*
!	!	!LO:SIC:v:t=custos d	!	!	!	!	!
2.B-\	-mo-	2G/	-bus	1g	-mo-	2r	.
!	!	!LO:LB:g=original	!	!	!	!	!
!	!	!LO:TX:t=P:problem:kreska pseudotaktowa	!	!	!	!LO:TX:t=P:problem:kreska pseudotaktowa	!
.	.	2d\	in	.	.	2d/	in
4B-\	-ni-	.	.	.	.	.	.
=54-	=54-	=54-	=54-	=54-	=54-	=54-	=54-
!LO:TX:t=P:problem:kreska pseudotaktowa	!	!	!	!	!	!	!
*	*	*	*	*col	*	*	*
1A	-um	2c/	te-	2.a\	.	2e/	te-
!	!	!LO:TX:t=P:problem:kreska pseudotaktowa	!	!	!	!	!
.	.	2A/	-sti-	.	.	2f\	-sti-
*	*	*	*	*Xlig	*	*	*
!	!	!	!	!LO:TX:t=P:problem:kreska pseudotaktowa	!	!	!
.	.	.	.	4a\	-ni-	.	.
*	*	*	*	*Xcol	*	*	*
1G	il-	2.B-/	-mo-	2d\	-um	2.g\	-mo-
*	*	*	*	*	*Xij	*	*
.	.	.	.	2.d\	il-	.	.
!	!	!	!	!	!	!LO:TX:t=P:problem:kreska pseudotaktowa	!
.	.	4B-/	-ni-	.	.	4g\	-ni-
=55-	=55-	=55-	=55-	=55-	=55-	=55-	=55-
2.D/	-lis	2A/	-um	.	.	2f\	-um
.	.	.	.	4d\	-lis	.	.
!	!	!LO:TX:t=P:problem:kreska pseudotaktowa	!	!LO:TX:t=P:problem:kreska pseudotaktowa	!	!	!
.	.	2d\	il-	2f\	et	2.a\	il-
!LO:TX:t=P:problem:kreska pseudotaktowa	!	!	!	!	!	!	!
4E/	.	.	.	.	.	.	.
2F/	et	2c/	-lis	4f\	Gen-	.	.
.	.	.	.	4e\	.	4a\	-lis
!LO:TX:t=P:problem:kreska pseudotaktowa	!	!	!	!	!	!LO:TX:t=P:problem:kreska pseudotaktowa	!
2G/	Gen-	1B-/	et	4d\	.	2g\	et
.	.	.	.	4c\	.	.	.
=56-	=56-	=56-	=56-	=56-	=56-	=56-	=56-
1.D	.	.	.	1.d	.	2f\	.
.	.	4A/	Gen-	.	.	1g	gen-
!	!	!LO:TX:t=P:problem:kreska pseudotaktowa	!	!	!	!	!
.	.	4G/	.	.	.	.	.
.	.	2A/	.	.	.	.	.
2D/	-ti-	2A/	-ti-	2d\	-ti-	2f\	-ti-
=57-	=57-	=57-	=57-	=57-	=57-	=57-	=57-
0Gl;;	-bus	0Gl;	-bus	0dl;;	-bus	0gl;;	-bus
==	==	==	==	==	==	==	==
*-	*-	*-	*-	*-	*-	*-	*-
!!!system-decoration: [s1,s2,s3,s4]
!!!RDF**kern: < = below
!!!RDF**kern: l = terminal long
!!!AIN: 1 alto 1 empty 1 tenor 1 vox
!!!ENC: Marta Lawrence
!!!END: 2021-03-27
!!!ENC: Krzysztof Stępień
!!!END: 2021-03-24
